public/img/icons/skills/CombatMagic.svg

<?xml version="1.0" encoding="UTF-8" standalone="no"?>
<svg
   viewBox="0 0 64 64"
   version="1.1"
   id="svg13"
   sodipodi:docname="CombatMagic.svg"
   inkscape:version="1.2 (dc2aeda, 2022-05-15)"
   xmlns:inkscape="http://www.inkscape.org/namespaces/inkscape"
   xmlns:sodipodi="http://sodipodi.sourceforge.net/DTD/sodipodi-0.dtd"
   xmlns="http://www.w3.org/2000/svg"
   xmlns:svg="http://www.w3.org/2000/svg">
  <defs
     id="defs17" />
  <sodipodi:namedview
     id="namedview15"
     pagecolor="#ffffff"
     bordercolor="#000000"
     borderopacity="0.25"
     inkscape:showpageshadow="2"
     inkscape:pageopacity="0.0"
     inkscape:pagecheckerboard="0"
     inkscape:deskcolor="#d1d1d1"
     showgrid="false"
     inkscape:zoom="3.6875"
     inkscape:cx="32"
     inkscape:cy="32"
     inkscape:window-width="1309"
     inkscape:window-height="456"
     inkscape:window-x="47"
     inkscape:window-y="34"
     inkscape:window-maximized="0"
     inkscape:current-layer="svg13" />
  <g
     id="icon"
     fill="currentColor"
     transform="matrix(1.7246728,0,0,1.7246728,11.775234,10.833312)">
    <path
       d="m 3.84453,3.84453 c -1.12604,1.12603 -1.12604,2.9517 0,4.07773 L 5.43227,9.51 C 5.44419,9.49622 5.45669,9.48276 5.46978,9.46967 l 4,-4 C 9.48284,5.45662 9.49625,5.44415 9.50999,5.43226 L 7.92226,3.84453 c -1.12603,-1.12604 -2.9517,-1.12604 -4.07773,0 z"
       id="path2" />
    <path
       d="M 10.5679,6.49012 C 10.556,6.50386 10.5435,6.51728 10.5304,6.53033 L 6.53044,10.5303 C 6.51735,10.5434 6.5039,10.5559 6.49011,10.5678 l 9.58759,9.5877 c 1.1261,1.126 2.9517,1.126 4.0778,0 1.126,-1.1261 1.126,-2.9517 0,-4.0778 z"
       id="path4" />
    <path
       d="m 16.1,2.30719 c 0.161,-0.40959 0.7385,-0.40959 0.8994,0 l 0.4304,1.09528 c 0.0492,0.12505 0.1478,0.22404 0.2724,0.27336 l 1.0912,0.43197 c 0.4081,0.16154 0.4081,0.7412 0,0.90274 L 17.7022,5.44252 C 17.5776,5.49184 17.479,5.59082 17.4298,5.71587 L 16.9995,6.81115 C 16.8385,7.22074 16.261,7.22074 16.1,6.81116 L 15.6697,5.71587 C 15.6205,5.59082 15.5219,5.49184 15.3973,5.44252 L 14.3061,5.01054 C 13.898,4.849 13.898,4.26934 14.3061,4.1078 l 1.0912,-0.43197 c 0.1246,-0.04932 0.2232,-0.14831 0.2724,-0.27336 z"
       id="path6" />
    <path
       d="m 19.9672,9.12945 c 0.1609,-0.40958 0.7385,-0.40958 0.8994,0 l 0.1569,0.39935 c 0.0492,0.12505 0.1478,0.22404 0.2724,0.27335 l 0.3978,0.1575 c 0.4081,0.16155 0.4081,0.74125 0,0.90275 l -0.3978,0.1575 c -0.1246,0.0493 -0.2232,0.1483 -0.2724,0.2733 l -0.1569,0.3994 c -0.1609,0.4096 -0.7385,0.4096 -0.8994,0 l -0.1569,-0.3994 c -0.0492,-0.125 -0.1478,-0.224 -0.2724,-0.2733 L 19.14,10.8624 c -0.408,-0.1615 -0.408,-0.7412 0,-0.90275 l 0.3979,-0.1575 c 0.1246,-0.04931 0.2232,-0.1483 0.2724,-0.27335 z"
       id="path8" />
    <path
       d="m 5.1332,15.3072 c 0.16094,-0.4096 0.73847,-0.4096 0.89941,0 l 0.15692,0.3993 c 0.04914,0.1251 0.14776,0.2241 0.27235,0.2734 l 0.39787,0.1575 c 0.40808,0.1615 0.40808,0.7412 0,0.9027 L 6.46188,17.1976 C 6.33729,17.2469 6.23867,17.3459 6.18953,17.471 l -0.15692,0.3993 c -0.16094,0.4096 -0.73847,0.4096 -0.89941,0 L 4.97628,17.471 C 4.92714,17.3459 4.82852,17.2469 4.70393,17.1976 L 4.30606,17.0401 c -0.40808,-0.1615 -0.40808,-0.7412 0,-0.9027 l 0.39787,-0.1575 c 0.12459,-0.0493 0.22321,-0.1483 0.27235,-0.2734 z"
       id="path10" />
  </g>
</svg>

<svg xmlns="http://www.w3.org/2000/svg" viewBox="0 0 64 64">
  <g id="icon" fill="currentColor" transform="scale(2.6667)">
    <path d="M3.84453 3.84453C2.71849 4.97056 2.71849 6.79623 3.84453 7.92226L5.43227 9.51C5.44419 9.49622 5.45669 9.48276 5.46978 9.46967L9.46978 5.46967C9.48284 5.45662 9.49625 5.44415 9.50999 5.43226L7.92226 3.84453C6.79623 2.71849 4.97056 2.71849 3.84453 3.84453Z" />
    <path d="M10.5679 6.49012C10.556 6.50386 10.5435 6.51728 10.5304 6.53033L6.53044 10.5303C6.51735 10.5434 6.5039 10.5559 6.49011 10.5678L16.0777 20.1555C17.2038 21.2815 19.0294 21.2815 20.1555 20.1555C21.2815 19.0294 21.2815 17.2038 20.1555 16.0777L10.5679 6.49012Z" />
    <path d="M16.1 2.30719C16.261 1.8976 16.8385 1.8976 16.9994 2.30719L17.4298 3.40247C17.479 3.52752 17.5776 3.62651 17.7022 3.67583L18.7934 4.1078C19.2015 4.26934 19.2015 4.849 18.7934 5.01054L17.7022 5.44252C17.5776 5.49184 17.479 5.59082 17.4298 5.71587L16.9995 6.81115C16.8385 7.22074 16.261 7.22074 16.1 6.81116L15.6697 5.71587C15.6205 5.59082 15.5219 5.49184 15.3973 5.44252L14.3061 5.01054C13.898 4.849 13.898 4.26934 14.3061 4.1078L15.3973 3.67583C15.5219 3.62651 15.6205 3.52752 15.6697 3.40247L16.1 2.30719Z" />
    <path d="M19.9672 9.12945C20.1281 8.71987 20.7057 8.71987 20.8666 9.12945L21.0235 9.5288C21.0727 9.65385 21.1713 9.75284 21.2959 9.80215L21.6937 9.95965C22.1018 10.1212 22.1018 10.7009 21.6937 10.8624L21.2959 11.0199C21.1713 11.0692 21.0727 11.1682 21.0235 11.2932L20.8666 11.6926C20.7057 12.1022 20.1281 12.1022 19.9672 11.6926L19.8103 11.2932C19.7611 11.1682 19.6625 11.0692 19.5379 11.0199L19.14 10.8624C18.732 10.7009 18.732 10.1212 19.14 9.95965L19.5379 9.80215C19.6625 9.75284 19.7611 9.65385 19.8103 9.5288L19.9672 9.12945Z" />
    <path d="M5.1332 15.3072C5.29414 14.8976 5.87167 14.8976 6.03261 15.3072L6.18953 15.7065C6.23867 15.8316 6.33729 15.9306 6.46188 15.9799L6.85975 16.1374C7.26783 16.2989 7.26783 16.8786 6.85975 17.0401L6.46188 17.1976C6.33729 17.2469 6.23867 17.3459 6.18953 17.471L6.03261 17.8703C5.87167 18.2799 5.29414 18.2799 5.1332 17.8703L4.97628 17.471C4.92714 17.3459 4.82852 17.2469 4.70393 17.1976L4.30606 17.0401C3.89798 16.8786 3.89798 16.2989 4.30606 16.1374L4.70393 15.9799C4.82852 15.9306 4.92714 15.8316 4.97628 15.7065L5.1332 15.3072Z" />
  </g>
</svg>
